report_00007_2020-12-11T15:55:29.892Z/metrics/comparison/line/2_vs_3.svg

<svg width="640" height="500" xmlns="http://www.w3.org/2000/svg" xmlns:xlink="http://www.w3.org/1999/xlink"><path fill="#fff" d="M0 0h640v500H0z"/><defs><path id="d" stroke-width=".222" stroke="currentColor" d="M-1-1h2v2h-2z"/><path id="b" stroke-width=".222" stroke="currentColor" d="M0-1.33l-1.33 2h2.66z"/><path id="f" stroke-width=".222" stroke="currentColor" d="M0 1.33L1.265.411.782-1.067l-1.564-.009-.483 1.487z"/><use xlink:href="#b" id="c" stroke="currentColor" transform="rotate(180)"/><use xlink:href="#d" id="e" stroke="currentColor" transform="rotate(45)"/><circle id="a" stroke-width=".222" stroke="currentColor" cx="0" cy="0" r="1"/></defs><g fill="none" color="#000" stroke="currentColor"><path stroke="#000" d="M70.5 391.6h9m535.5 0h-9"/><text transform="translate(62.2 395.5)" stroke="none" fill="#000" font-family="Arial" font-size="12" text-anchor="end"><tspan>11000</tspan></text></g><g fill="none" color="#000" stroke="currentColor"><path stroke="#000" d="M70.5 318.4h9m535.5 0h-9"/><text transform="translate(62.2 322.3)" stroke="none" fill="#000" font-family="Arial" font-size="12" text-anchor="end"><tspan>11100</tspan></text></g><g fill="none" color="#000" stroke="currentColor"><path stroke="#000" d="M70.5 245.2h9m535.5 0h-9"/><text transform="translate(62.2 249.1)" stroke="none" fill="#000" font-family="Arial" font-size="12" text-anchor="end"><tspan>11200</tspan></text></g><g fill="none" color="#000" stroke="currentColor"><path stroke="#000" d="M70.5 172h9m535.5 0h-9"/><text transform="translate(62.2 175.9)" stroke="none" fill="#000" font-family="Arial" font-size="12" text-anchor="end"><tspan>11300</tspan></text></g><g fill="none" color="#000" stroke="currentColor"><path stroke="#000" d="M70.5 98.8h9m535.5 0h-9"/><text transform="translate(62.2 102.7)" stroke="none" fill="#000" font-family="Arial" font-size="12" text-anchor="end"><tspan>11400</tspan></text></g><g fill="none" color="#000" stroke="currentColor"><path stroke="#000" d="M70.5 25.6h9m535.5 0h-9"/><text transform="translate(62.2 29.5)" stroke="none" fill="#000" font-family="Arial" font-size="12" text-anchor="end"><tspan>11500</tspan></text></g><g fill="none" color="#000" stroke="currentColor"><path stroke="#000" d="M70.5 446v-9m0-418.9v9"/><text transform="translate(70.5 467.9)" stroke="none" fill="#000" font-family="Arial" font-size="12" text-anchor="middle"><tspan>0</tspan></text></g><g fill="none" color="#000" stroke="currentColor"><path stroke="#000" d="M125.5 446v-9m0-418.9v9"/><text transform="translate(125.5 467.9)" stroke="none" fill="#000" font-family="Arial" font-size="12" text-anchor="middle"><tspan>10</tspan></text></g><g fill="none" color="#000" stroke="currentColor"><path stroke="#000" d="M180.5 446v-9m0-418.9v9"/><text transform="translate(180.5 467.9)" stroke="none" fill="#000" font-family="Arial" font-size="12" text-anchor="middle"><tspan>20</tspan></text></g><g fill="none" color="#000" stroke="currentColor"><path stroke="#000" d="M235.5 446v-9m0-418.9v9"/><text transform="translate(235.5 467.9)" stroke="none" fill="#000" font-family="Arial" font-size="12" text-anchor="middle"><tspan>30</tspan></text></g><g fill="none" color="#000" stroke="currentColor"><path stroke="#000" d="M290.5 446v-9m0-418.9v9"/><text transform="translate(290.5 467.9)" stroke="none" fill="#000" font-family="Arial" font-size="12" text-anchor="middle"><tspan>40</tspan></text></g><g fill="none" color="#000" stroke="currentColor"><path stroke="#000" d="M345.5 446v-9m0-418.9v9"/><text transform="translate(345.5 467.9)" stroke="none" fill="#000" font-family="Arial" font-size="12" text-anchor="middle"><tspan>50</tspan></text></g><g fill="none" color="#000" stroke="currentColor"><path stroke="#000" d="M400.5 446v-9m0-418.9v9"/><text transform="translate(400.5 467.9)" stroke="none" fill="#000" font-family="Arial" font-size="12" text-anchor="middle"><tspan>60</tspan></text></g><g fill="none" color="#000" stroke="currentColor"><path stroke="#000" d="M455.5 446v-9m0-418.9v9"/><text transform="translate(455.5 467.9)" stroke="none" fill="#000" font-family="Arial" font-size="12" text-anchor="middle"><tspan>70</tspan></text></g><g fill="none" color="#000" stroke="currentColor"><path stroke="#000" d="M510.5 446v-9m0-418.9v9"/><text transform="translate(510.5 467.9)" stroke="none" fill="#000" font-family="Arial" font-size="12" text-anchor="middle"><tspan>80</tspan></text></g><g fill="none" color="#000" stroke="currentColor"><path stroke="#000" d="M565.5 446v-9m0-418.9v9"/><text transform="translate(565.5 467.9)" stroke="none" fill="#000" font-family="Arial" font-size="12" text-anchor="middle"><tspan>90</tspan></text></g><path stroke="#000" d="M70.5 18.1V446H615V18.1H70.5z" fill="none" color="#000"/><text transform="translate(283.9 485.9)" stroke="none" fill="#000" font-family="Arial" font-size="12" text-anchor="end" color="#000"><tspan>pages+cached</tspan></text><path stroke="#9400D3" d="M292.2 482h42.2M70.5 26.3l5.5 388 5.5-35.8 5.5 37.3h5.5l5.5-24.2 5.5 43.2L109 407l5.5 23.5 5.5-16.2 5.5 16.9 5.5-9.5 5.5-12.5 5.5-19 5.5 21.9 5.5-1.4 5.5 21.9 5.5-13.9 5.5.8 5.5 8.8 5.5-16.2 5.5-3.6 5.5 6.6 5.5 8 5.5-15.3 5.5 2.2 5.5 20.5L219 410l5.5 5.1 5.5 13.2 5.5-21.3 5.5 24.2 5.5 2.9 5.5-2.9h5.5l5.5-19.8 5.5 10.3 5.5-49.1 5.5 46.9 5.5-1.5 5.5-9.5 5.5 5.1 5.5-6.6 5.5-8 5.5 25.6 5.5-19 5.5 25.6 5.5-2.2 5.5-2.9L340 410l5.5 17.5 5.5-37.3 5.5 41 5.5 2.2 5.5-27.8 5.5 24.1 5.5.8 5.5-7.4 5.5-13.1 5.5 9.5 5.5 11.7 5.5-4.4 5.5 1.5 5.5-3.7 5.5-19 5.5 9.5 5.5 15.4 5.5-14.7 5.5 13.2 5.5 5.8 5.5 3 5.5-6.6 5.5-27.8 5.5 8.7 5.5 5.9 5.5 7.3 5.5-9.5 5.5 7.3 5.5 4.4 5.5-14.6 5.5-4.4 5.5 1.5 5.5 7.3 5.5 17.5h5.5l5.5-6.5 5.5-2.2 5.5 3.6 5.5-1.4 5.5-2.2 5.5-14.7 5.5 22.7 5.5-8 5.5 3.6 5.5-20.5 5.5 19.1h5.5l5.5-4.4 5.5-6.6 5.5-6.6" fill="none" color="#000"/><text transform="translate(558.5 485.9)" stroke="none" fill="#000" font-family="Arial" font-size="12" text-anchor="end" color="#000"><tspan>pages+cached+nointeractive</tspan></text><path stroke="#009E73" d="M566.8 482H609M70.5 407l5.5 23.5 5.5-33.7 5.5 14.6 5.5-2.9 5.5 17.6 5.5-4.4 5.5 5.8 5.5-2.2 5.5-38.8 5.5 24.9 5.5-1.4 5.5 11.7 5.5-11 5.5 14.6 5.5 3 5.5-22 5.5 24.9 5.5-1.5 5.5-13.9 5.5 13.2h5.5l5.5 1.5 5.5-13.2 5.5 16.1 5.5-2.2 5.5-.7 5.5 5.1 5.5-8.1 5.5.8 5.5-21.3 5.5 17.6 5.5 3.7 5.5-8.1 5.5 6.6 5.5 3.7 5.5-8.1 5.5 1.5 5.5-14.7 5.5 15.4 5.5 2.2 5.5-19 5.5 22.7L307 407l5.5 22.7 5.5-3.6h5.5l5.5-.8h5.5l5.5 1.5 5.5-.7h5.5l5.5-3 5.5 13.2 5.5-12.4 5.5 1.4 5.5-15.3 5.5 2.1 5.5 17.6 5.5-.7 5.5-4.4 5.5-13.2 5.5 14.7 5.5 11.7 5.5-3 5.5-3.6 5.5-5.9 5.5 8.1 5.5-17.6 5.5 7.3 5.5-16.8 5.5 2.2 5.5 17.6 5.5-8.1 5.5 17.6 5.5-10.3 5.5 2.2 5.5 2.2 5.5 2.2h5.5l5.5-10.2 5.5 10.9 5.5-20.5 5.5 14 5.5 5.1L538 399l5.5 25.6 5.5-8.1 5.5 11 5.5-6.6 5.5 9.6 5.5-9.6 5.5 5.2 5.5 1.4 5.5 3 5.5-17.6 5.5 21.2 5.5-6.6 5.5-.7 5.5-3.7" fill="none" color="#000"/><g fill="none" color="#000" stroke="currentColor"><path stroke="#000" d="M70.5 18.1V446H615V18.1H70.5z"/></g></svg>

<?xml version="1.0" encoding="utf-8"  standalone="no"?>
<svg 
 width="640" height="500"
 viewBox="0 0 640 500"
 xmlns="http://www.w3.org/2000/svg"
 xmlns:xlink="http://www.w3.org/1999/xlink"
>

<title>Gnuplot</title>
<desc>Produced by GNUPLOT 5.4 patchlevel 0 </desc>

<g id="gnuplot_canvas">

<rect x="0" y="0" width="640" height="500" fill="#ffffff"/>
<defs>

	<circle id='gpDot' r='0.5' stroke-width='0.5' stroke='currentColor'/>
	<path id='gpPt0' stroke-width='0.222' stroke='currentColor' d='M-1,0 h2 M0,-1 v2'/>
	<path id='gpPt1' stroke-width='0.222' stroke='currentColor' d='M-1,-1 L1,1 M1,-1 L-1,1'/>
	<path id='gpPt2' stroke-width='0.222' stroke='currentColor' d='M-1,0 L1,0 M0,-1 L0,1 M-1,-1 L1,1 M-1,1 L1,-1'/>
	<rect id='gpPt3' stroke-width='0.222' stroke='currentColor' x='-1' y='-1' width='2' height='2'/>
	<rect id='gpPt4' stroke-width='0.222' stroke='currentColor' fill='currentColor' x='-1' y='-1' width='2' height='2'/>
	<circle id='gpPt5' stroke-width='0.222' stroke='currentColor' cx='0' cy='0' r='1'/>
	<use xlink:href='#gpPt5' id='gpPt6' fill='currentColor' stroke='none'/>
	<path id='gpPt7' stroke-width='0.222' stroke='currentColor' d='M0,-1.33 L-1.33,0.67 L1.33,0.67 z'/>
	<use xlink:href='#gpPt7' id='gpPt8' fill='currentColor' stroke='none'/>
	<use xlink:href='#gpPt7' id='gpPt9' stroke='currentColor' transform='rotate(180)'/>
	<use xlink:href='#gpPt9' id='gpPt10' fill='currentColor' stroke='none'/>
	<use xlink:href='#gpPt3' id='gpPt11' stroke='currentColor' transform='rotate(45)'/>
	<use xlink:href='#gpPt11' id='gpPt12' fill='currentColor' stroke='none'/>
	<path id='gpPt13' stroke-width='0.222' stroke='currentColor' d='M0,1.330 L1.265,0.411 L0.782,-1.067 L-0.782,-1.076 L-1.265,0.411 z'/>
	<use xlink:href='#gpPt13' id='gpPt14' fill='currentColor' stroke='none'/>
	<filter id='textbox' filterUnits='objectBoundingBox' x='0' y='0' height='1' width='1'>
	  <feFlood flood-color='#FFFFFF' flood-opacity='1' result='bgnd'/>
	  <feComposite in='SourceGraphic' in2='bgnd' operator='atop'/>
	</filter>
	<filter id='greybox' filterUnits='objectBoundingBox' x='0' y='0' height='1' width='1'>
	  <feFlood flood-color='lightgrey' flood-opacity='1' result='grey'/>
	  <feComposite in='SourceGraphic' in2='grey' operator='atop'/>
	</filter>
</defs>
<g fill="none" color="#FFFFFF" stroke="black" stroke-width="1.00" stroke-linecap="butt" stroke-linejoin="miter">
</g>
<g fill="none" color="black" stroke="currentColor" stroke-width="1.00" stroke-linecap="butt" stroke-linejoin="miter">
	<path stroke='black'  d='M70.5,391.6 L79.5,391.6 M615.0,391.6 L606.0,391.6  '/>	<g transform="translate(62.2,395.5)" stroke="none" fill="black" font-family="Arial" font-size="12.00"  text-anchor="end">
		<text><tspan font-family="Arial" > 11000</tspan></text>
	</g>
</g>
<g fill="none" color="black" stroke="currentColor" stroke-width="1.00" stroke-linecap="butt" stroke-linejoin="miter">
	<path stroke='black'  d='M70.5,318.4 L79.5,318.4 M615.0,318.4 L606.0,318.4  '/>	<g transform="translate(62.2,322.3)" stroke="none" fill="black" font-family="Arial" font-size="12.00"  text-anchor="end">
		<text><tspan font-family="Arial" > 11100</tspan></text>
	</g>
</g>
<g fill="none" color="black" stroke="currentColor" stroke-width="1.00" stroke-linecap="butt" stroke-linejoin="miter">
	<path stroke='black'  d='M70.5,245.2 L79.5,245.2 M615.0,245.2 L606.0,245.2  '/>	<g transform="translate(62.2,249.1)" stroke="none" fill="black" font-family="Arial" font-size="12.00"  text-anchor="end">
		<text><tspan font-family="Arial" > 11200</tspan></text>
	</g>
</g>
<g fill="none" color="black" stroke="currentColor" stroke-width="1.00" stroke-linecap="butt" stroke-linejoin="miter">
	<path stroke='black'  d='M70.5,172.0 L79.5,172.0 M615.0,172.0 L606.0,172.0  '/>	<g transform="translate(62.2,175.9)" stroke="none" fill="black" font-family="Arial" font-size="12.00"  text-anchor="end">
		<text><tspan font-family="Arial" > 11300</tspan></text>
	</g>
</g>
<g fill="none" color="black" stroke="currentColor" stroke-width="1.00" stroke-linecap="butt" stroke-linejoin="miter">
	<path stroke='black'  d='M70.5,98.8 L79.5,98.8 M615.0,98.8 L606.0,98.8  '/>	<g transform="translate(62.2,102.7)" stroke="none" fill="black" font-family="Arial" font-size="12.00"  text-anchor="end">
		<text><tspan font-family="Arial" > 11400</tspan></text>
	</g>
</g>
<g fill="none" color="black" stroke="currentColor" stroke-width="1.00" stroke-linecap="butt" stroke-linejoin="miter">
	<path stroke='black'  d='M70.5,25.6 L79.5,25.6 M615.0,25.6 L606.0,25.6  '/>	<g transform="translate(62.2,29.5)" stroke="none" fill="black" font-family="Arial" font-size="12.00"  text-anchor="end">
		<text><tspan font-family="Arial" > 11500</tspan></text>
	</g>
</g>
<g fill="none" color="black" stroke="currentColor" stroke-width="1.00" stroke-linecap="butt" stroke-linejoin="miter">
	<path stroke='black'  d='M70.5,446.0 L70.5,437.0 M70.5,18.1 L70.5,27.1  '/>	<g transform="translate(70.5,467.9)" stroke="none" fill="black" font-family="Arial" font-size="12.00"  text-anchor="middle">
		<text><tspan font-family="Arial" > 0</tspan></text>
	</g>
</g>
<g fill="none" color="black" stroke="currentColor" stroke-width="1.00" stroke-linecap="butt" stroke-linejoin="miter">
	<path stroke='black'  d='M125.5,446.0 L125.5,437.0 M125.5,18.1 L125.5,27.1  '/>	<g transform="translate(125.5,467.9)" stroke="none" fill="black" font-family="Arial" font-size="12.00"  text-anchor="middle">
		<text><tspan font-family="Arial" > 10</tspan></text>
	</g>
</g>
<g fill="none" color="black" stroke="currentColor" stroke-width="1.00" stroke-linecap="butt" stroke-linejoin="miter">
	<path stroke='black'  d='M180.5,446.0 L180.5,437.0 M180.5,18.1 L180.5,27.1  '/>	<g transform="translate(180.5,467.9)" stroke="none" fill="black" font-family="Arial" font-size="12.00"  text-anchor="middle">
		<text><tspan font-family="Arial" > 20</tspan></text>
	</g>
</g>
<g fill="none" color="black" stroke="currentColor" stroke-width="1.00" stroke-linecap="butt" stroke-linejoin="miter">
	<path stroke='black'  d='M235.5,446.0 L235.5,437.0 M235.5,18.1 L235.5,27.1  '/>	<g transform="translate(235.5,467.9)" stroke="none" fill="black" font-family="Arial" font-size="12.00"  text-anchor="middle">
		<text><tspan font-family="Arial" > 30</tspan></text>
	</g>
</g>
<g fill="none" color="black" stroke="currentColor" stroke-width="1.00" stroke-linecap="butt" stroke-linejoin="miter">
	<path stroke='black'  d='M290.5,446.0 L290.5,437.0 M290.5,18.1 L290.5,27.1  '/>	<g transform="translate(290.5,467.9)" stroke="none" fill="black" font-family="Arial" font-size="12.00"  text-anchor="middle">
		<text><tspan font-family="Arial" > 40</tspan></text>
	</g>
</g>
<g fill="none" color="black" stroke="currentColor" stroke-width="1.00" stroke-linecap="butt" stroke-linejoin="miter">
	<path stroke='black'  d='M345.5,446.0 L345.5,437.0 M345.5,18.1 L345.5,27.1  '/>	<g transform="translate(345.5,467.9)" stroke="none" fill="black" font-family="Arial" font-size="12.00"  text-anchor="middle">
		<text><tspan font-family="Arial" > 50</tspan></text>
	</g>
</g>
<g fill="none" color="black" stroke="currentColor" stroke-width="1.00" stroke-linecap="butt" stroke-linejoin="miter">
	<path stroke='black'  d='M400.5,446.0 L400.5,437.0 M400.5,18.1 L400.5,27.1  '/>	<g transform="translate(400.5,467.9)" stroke="none" fill="black" font-family="Arial" font-size="12.00"  text-anchor="middle">
		<text><tspan font-family="Arial" > 60</tspan></text>
	</g>
</g>
<g fill="none" color="black" stroke="currentColor" stroke-width="1.00" stroke-linecap="butt" stroke-linejoin="miter">
	<path stroke='black'  d='M455.5,446.0 L455.5,437.0 M455.5,18.1 L455.5,27.1  '/>	<g transform="translate(455.5,467.9)" stroke="none" fill="black" font-family="Arial" font-size="12.00"  text-anchor="middle">
		<text><tspan font-family="Arial" > 70</tspan></text>
	</g>
</g>
<g fill="none" color="black" stroke="currentColor" stroke-width="1.00" stroke-linecap="butt" stroke-linejoin="miter">
	<path stroke='black'  d='M510.5,446.0 L510.5,437.0 M510.5,18.1 L510.5,27.1  '/>	<g transform="translate(510.5,467.9)" stroke="none" fill="black" font-family="Arial" font-size="12.00"  text-anchor="middle">
		<text><tspan font-family="Arial" > 80</tspan></text>
	</g>
</g>
<g fill="none" color="black" stroke="currentColor" stroke-width="1.00" stroke-linecap="butt" stroke-linejoin="miter">
	<path stroke='black'  d='M565.5,446.0 L565.5,437.0 M565.5,18.1 L565.5,27.1  '/>	<g transform="translate(565.5,467.9)" stroke="none" fill="black" font-family="Arial" font-size="12.00"  text-anchor="middle">
		<text><tspan font-family="Arial" > 90</tspan></text>
	</g>
</g>
<g fill="none" color="black" stroke="currentColor" stroke-width="1.00" stroke-linecap="butt" stroke-linejoin="miter">
</g>
<g fill="none" color="black" stroke="currentColor" stroke-width="1.00" stroke-linecap="butt" stroke-linejoin="miter">
	<path stroke='black'  d='M70.5,18.1 L70.5,446.0 L615.0,446.0 L615.0,18.1 L70.5,18.1 Z  '/></g>
<g fill="none" color="black" stroke="currentColor" stroke-width="1.00" stroke-linecap="butt" stroke-linejoin="miter">
</g>
	<g id="gnuplot_plot_1" ><title>pages+cached</title>
<g fill="none" color="black" stroke="currentColor" stroke-width="1.00" stroke-linecap="butt" stroke-linejoin="miter">
	<g transform="translate(283.9,485.9)" stroke="none" fill="black" font-family="Arial" font-size="12.00"  text-anchor="end">
		<text><tspan font-family="Arial" >pages+cached</tspan></text>
	</g>
</g>
<g fill="none" color="black" stroke="currentColor" stroke-width="1.00" stroke-linecap="butt" stroke-linejoin="miter">
	<path stroke='rgb(148,   0, 211)'  d='M292.2,482.0 L334.4,482.0 M70.5,26.3 L76.0,414.3 L81.5,378.5 L87.0,415.8 L92.5,415.8 L98.0,391.6
		L103.5,434.8 L109.0,407.0 L114.5,430.5 L120.0,414.3 L125.5,431.2 L131.0,421.7 L136.5,409.2 L142.0,390.2
		L147.5,412.1 L153.0,410.7 L158.5,432.6 L164.0,418.7 L169.5,419.5 L175.0,428.3 L180.5,412.1 L186.0,408.5
		L191.5,415.1 L197.0,423.1 L202.5,407.8 L208.0,410.0 L213.5,430.5 L219.0,410.0 L224.5,415.1 L230.0,428.3
		L235.5,407.0 L241.0,431.2 L246.5,434.1 L252.0,431.2 L257.5,431.2 L263.0,411.4 L268.5,421.7 L274.0,372.6
		L279.5,419.5 L285.0,418.0 L290.5,408.5 L296.0,413.6 L301.5,407.0 L307.0,399.0 L312.5,424.6 L318.0,405.6
		L323.5,431.2 L329.0,429.0 L334.5,426.1 L340.0,410.0 L345.5,427.5 L351.0,390.2 L356.5,431.2 L362.0,433.4
		L367.5,405.6 L373.0,429.7 L378.5,430.5 L384.0,423.1 L389.5,410.0 L395.0,419.5 L400.5,431.2 L406.0,426.8
		L411.5,428.3 L417.0,424.6 L422.5,405.6 L428.0,415.1 L433.5,430.5 L439.0,415.8 L444.5,429.0 L450.0,434.8
		L455.5,437.8 L461.0,431.2 L466.5,403.4 L472.0,412.1 L477.5,418.0 L483.0,425.3 L488.5,415.8 L494.0,423.1
		L499.5,427.5 L505.0,412.9 L510.5,408.5 L516.0,410.0 L521.5,417.3 L527.0,434.8 L532.5,434.8 L538.0,428.3
		L543.5,426.1 L549.0,429.7 L554.5,428.3 L560.0,426.1 L565.5,411.4 L571.0,434.1 L576.5,426.1 L582.0,429.7
		L587.5,409.2 L593.0,428.3 L598.5,428.3 L604.0,423.9 L609.5,417.3 L615.0,410.7  '/></g>
	</g>
	<g id="gnuplot_plot_2" ><title>pages+cached+nointeractive</title>
<g fill="none" color="black" stroke="currentColor" stroke-width="1.00" stroke-linecap="butt" stroke-linejoin="miter">
	<g transform="translate(558.5,485.9)" stroke="none" fill="black" font-family="Arial" font-size="12.00"  text-anchor="end">
		<text><tspan font-family="Arial" >pages+cached+nointeractive</tspan></text>
	</g>
</g>
<g fill="none" color="black" stroke="currentColor" stroke-width="1.00" stroke-linecap="butt" stroke-linejoin="miter">
	<path stroke='rgb(  0, 158, 115)'  d='M566.8,482.0 L609.0,482.0 M70.5,407.0 L76.0,430.5 L81.5,396.8 L87.0,411.4 L92.5,408.5 L98.0,426.1
		L103.5,421.7 L109.0,427.5 L114.5,425.3 L120.0,386.5 L125.5,411.4 L131.0,410.0 L136.5,421.7 L142.0,410.7
		L147.5,425.3 L153.0,428.3 L158.5,406.3 L164.0,431.2 L169.5,429.7 L175.0,415.8 L180.5,429.0 L186.0,429.0
		L191.5,430.5 L197.0,417.3 L202.5,433.4 L208.0,431.2 L213.5,430.5 L219.0,435.6 L224.5,427.5 L230.0,428.3
		L235.5,407.0 L241.0,424.6 L246.5,428.3 L252.0,420.2 L257.5,426.8 L263.0,430.5 L268.5,422.4 L274.0,423.9
		L279.5,409.2 L285.0,424.6 L290.5,426.8 L296.0,407.8 L301.5,430.5 L307.0,407.0 L312.5,429.7 L318.0,426.1
		L323.5,426.1 L329.0,425.3 L334.5,425.3 L340.0,426.8 L345.5,426.1 L351.0,426.1 L356.5,423.1 L362.0,436.3
		L367.5,423.9 L373.0,425.3 L378.5,410.0 L384.0,412.1 L389.5,429.7 L395.0,429.0 L400.5,424.6 L406.0,411.4
		L411.5,426.1 L417.0,437.8 L422.5,434.8 L428.0,431.2 L433.5,425.3 L439.0,433.4 L444.5,415.8 L450.0,423.1
		L455.5,406.3 L461.0,408.5 L466.5,426.1 L472.0,418.0 L477.5,435.6 L483.0,425.3 L488.5,427.5 L494.0,429.7
		L499.5,431.9 L505.0,431.9 L510.5,421.7 L516.0,432.6 L521.5,412.1 L527.0,426.1 L532.5,431.2 L538.0,399.0
		L543.5,424.6 L549.0,416.5 L554.5,427.5 L560.0,420.9 L565.5,430.5 L571.0,420.9 L576.5,426.1 L582.0,427.5
		L587.5,430.5 L593.0,412.9 L598.5,434.1 L604.0,427.5 L609.5,426.8 L615.0,423.1  '/></g>
	</g>
<g fill="none" color="#FFFFFF" stroke="rgb(  0, 158, 115)" stroke-width="2.00" stroke-linecap="butt" stroke-linejoin="miter">
</g>
<g fill="none" color="black" stroke="currentColor" stroke-width="2.00" stroke-linecap="butt" stroke-linejoin="miter">
</g>
<g fill="none" color="black" stroke="black" stroke-width="1.00" stroke-linecap="butt" stroke-linejoin="miter">
</g>
<g fill="none" color="black" stroke="currentColor" stroke-width="1.00" stroke-linecap="butt" stroke-linejoin="miter">
	<path stroke='black'  d='M70.5,18.1 L70.5,446.0 L615.0,446.0 L615.0,18.1 L70.5,18.1 Z  '/></g>
<g fill="none" color="black" stroke="currentColor" stroke-width="1.00" stroke-linecap="butt" stroke-linejoin="miter">
</g>
</g>
</svg>
